!!!!SEGMENT: pl-kozmzk--mzk-m-26--002_stefani-jozef--msza-swieta-gloria.krn
!!!cenid: 18xx:2946
!!!COM: Stefani, Józef
!!!COM-rismID:
!!!CDT: 1800/04/16-1876/03/19
!!!CNT: Polish
!!!OPR: Msza Święta
!!!OTL: Gloria
!!!OMV: 002
!!!PDT:
!!!AGN: Sacred; Mass
!!!SMS-siglum: PL-KOZmzk
!!!SMS-shelfmark: mzk/m/26
!!!SMS-shelfwork: 001-002 M
!!!SMS-variant:
!!!SMS-altvar:
!!!NIFC-rismSourceID: 1001024881
!!!NIFC-islandoraID: pl-kozmzk:12693
!!!URL-pdf-islandora: https://repozytorium.nifc.pl/islandora/object/pl-kozmzk%3A12693/datastream/PDF/view
!!!URL-scan: https://polish.musicsources.pl/pl/lokalizacje/galeria/rekopisy/460 @EN{Scan on Polish Music Herritage in Open Access Website} @PL{Skany w portalu Dziedzictwo Muzyki Polskiej w otwartym dostępie}
!!!ONB-nifc: UWAGA: Części mszy: 1. Kyrie, 2. Gloria, 3. Graduale, 4. Credo, 5. Offertorium, 6. Sanctus, 7. Benedictus, 8. Agnus Dei, 9. Dona nobis
!!!OMD: Allo. Moderato
!!!AIN: 4 empty
!!!key:
**kern	**kern	**kern	**dynam	**kern	**text	**dynam	**kern	**dynam
*group2	*group2	*group1	*	*group1	*	*	*group1	*
*part4	*part4	*part3	*part3	*part2	*part2	*part2	*part1	*part1
*staff5	*staff4	*staff3	*	*staff2	*staff2	*	*staff1	*
*Iempty	*Iempty	*Iempty	*	*Iempty	*	*	*Iempty	*
*I"	*I"	*I"	*	*I"	*	*	*I"	*
*clefF4	*clefG2	*clefF4	*	*clefC4	*	*	*clefC4	*
*k[b-]	*k[b-]	*k[b-]	*	*k[b-]	*	*	*k[b-]	*
*B-:	*B-:	*B-:	*	*B-:	*	*	*B-:	*
*M4/4	*M4/4	*M4/4	*	*M4/4	*	*	*M4/4	*
*met(c)	*met(c)	*met(c)	*	*met(c)	*	*	*met(c)	*
*2\right	*2\right	*2\right	*	*2\right	*	*	*2\right	*
=1	=1	=1	=1	=1	=1	=1	=1	=1
2.F 2.FF/	2.ff 2.f/	1r	.	1r	.	.	1r	.
[4F [4FF/	[4ff [4f/	.	.	.	.	.	.	.
=2	=2	=2	=2	=2	=2	=2	=2	=2
2.F] 2.FF/]	2.ff] 2.f/]	2r	.	2r	.	.	2r	.
.	.	4r	.	4r	.	.	4r	.
8.F\L	8.ffL 8.f\	8.F\	.	8.f\	Chwa-	.	8.f\	.
16En\Jk	16eenJk 16en\	16E\	.	16en\	-łę	.	16en\	.
=3	=3	=3	=3	=3	=3	=3	=3	=3
2F\	2ff 2f\	2F\	.	2f\	Pa-	.	2f\	.
4C\	4cc 4c/	4C/	.	4c\	-na	.	4c\	.
8.FL 8.FF/	8.aL 8.f/	8.F\	.	8.A\	wdzię-	.	8.A\	.
16EJk 16EE/	16ccJk 16g/	16E\	.	16F\	-cznem	.	16c\	.
!!LO:LB:g=original
=4	=4	=4	=4	=4	=4	=4	=4	=4
2D 2DD/	2ff 2a 2f\	2D\	.	2A\	już	.	2f\	.
2G 2GG/	2dd 2bn [2g\	2G\	.	2Bn\	niem	.	2d\	.
=5	=5	=5	=5	=5	=5	=5	=5	=5
*	*^	*	*	*	*	*	*	*
*tremolo	*	*	*	*	*	*	*	*	*
8C\L	2ee/	4cc 4g]\	4C/	.	4c\	Lu-	.	4e\	.
8c\	.	.	.	.	.	.	.	.	.
8C\	.	4g\	8.C/	.	8.G/	-dy	.	8.e\	.
8c\J	.	.	.	.	.	.	.	.	.
.	.	.	16C/	.	16G/	A-	.	16e\	.
*Xtremolo	*	*	*	*	*	*	*	*	*
*rep	*	*	*	*	*	*	*	*	*
8C\L	8gg\L 8b-X\	2ryy	4.C/	.	(8B-X/L	-nio-	.	(8g\L	.
8c\	8ff\ 8a\	.	.	.	8A/J)	.	.	8f\J)	.
8C\	8ee\ 8g\	.	.	.	8G/	-ły	.	8e\	.
8c\J	8dd\J 8f\	.	8C/	.	8F/	ro-	.	8d\	.
*Xrep	*	*	*	*	*	*	*	*	*
*	*v	*v	*	*	*	*	*	*	*
=6	=6	=6	=6	=6	=6	=6	=6	=6
8C\L	8ccL 8e/	(4C/	.	(4E/	-znie-	.	(4c\	.
8G\	8g/	.	.	.	.	.	.	.
8Bn\	8dd/	4BBn/)	.	4G/)	.	.	4dT\)	.
8G\J	[8g/J	.	.	.	.	.	.	.
4c\	4ee 4g/]	4C/	.	4G/	-ście	.	4e\	.
8.G\L	8.ggL 8.g\	8.F\	.	8.G/	O-	.	8.g\	.
16F#X\Jk	16ff#XJk 16f#X\	16F#X\	.	16F#X/	-ży-	.	16f#X\	.
=7	=7	=7	=7	=7	=7	=7	=7	=7
2G\	2gg 2g\	2G\	.	2G/	-wie-	.	2g\	.
4Fn\	4ffn 4fn\	4Fn\	.	4Fn/	-ni	.	4fn\	.
8.E\L	8.eeL 8.e\	8.E\	.	8.E/	Je-	.	8.e\	.
16D\Jk	16ddJk 16d\	16D\	.	16D/	-go	.	16d\	.
!!LO:LB:g=original
=8	=8	=8	=8	=8	=8	=8	=8	=8
2E\	2ee 2e/	2E\	.	2E/	tchnie-	.	2e\	.
2C\	2cc 2c/	2C/	.	2c\	-niem	.	2c\	.
=9	=9	=9	=9	=9	=9	=9	=9	=9
*	*^	*	*	*	*	*	*	*
2BB-/	2dd\ 2b-\	2ryy	4BB-/	.	4B-\	w nim	.	4d\	.
.	.	.	8.BB-/	.	8.B-\	i	.	8.d\	.
.	.	.	16BB-/	.	16B-\	dla	.	16d\	.
[>4C/	8cc/L	4a\	4C/	.	4A\	nie-	.	(8c\L	.
.	8ff/	.	.	.	.	.	.	8f\J)	.
4C] 4CC/	8dd/	8b-\L	8C/	.	8B-\	-go	.	8d\	.
.	8ee/J	8g\J	8C/	.	8G/	ie-	.	8e\	.
*	*v	*v	*	*	*	*	*	*	*
=10	=10	=10	=10	=10	=10	=10	=10	=10
2F 2FF/	4ff 4a 4f\	4F\	.	4A\	-ste-	.	4f\	.
.	4ff 4a 4f\	8F\	.	8A\	-ście.	.	8f\	.
.	.	8r	.	8r	.	.	8r	.
4G 4GG/	4ee-X 4b- 4e-X/	2r	.	2r	.	.	2r	.
!	!LO:TX:b:i:t=V&colon;S.	!	!	!	!	!	!	!
4A 4AA/	4cc 4f/	.	.	.	.	.	.	.
!!LO:PB:g=original
=11	=11	=11	=11	=11	=11	=11	=11	=11
*^	*^	*	*	*	*	*	*	*
*	*	*	*^	*	*	*	*	*	*	*
!	!	!	!	!	!	!	!	!	!	!LO:TX:a:i:t=Solo	!
!	!	!	!	!	!	!LO:DY:a	!	!	!LO:DY:a	!LO:TX:i:a:t=poco rallentando	!LO:DY:a
4.B-/	1BB-	2dd/	2f\	1b-	4.BB-/	p	4.B-\	Przed	p	4.d\	p
8A/	.	.	.	.	8BB-/	.	8A\	nim	.	8d\	.
!	!	!LO:SIC:v:s=4ee-	!	!	!	!	!	!	!	!	!
4G/	.	4ee/	4e-X\	.	4BB-/	.	4G/	ko-	.	4e-X\	.
4F/	.	4dd/	4f\	.	4BB-/	.	4F/	-ło	.	4d\	.
*	*	*	*v	*v	*	*	*	*	*	*	*
=12	=12	=12	=12	=12	=12	=12	=12	=12	=12	=12
4.E-X/	1BB-	4.cc/	4.e-X\	4.BB-/	.	4.E-X/	czas	.	4.c\	.
8F/	.	8dd/	8f\	8BB-/	.	8F/	za-	.	8d\	.
2F/	.	4b-/	2d\	4BB-/	.	4D/	-trzy-	.	4B-\	.
.	.	4f/	.	4BB-/	.	4D/	-ma	.	4F/	.
*v	*v	*	*	*	*	*	*	*	*	*
*	*v	*v	*	*	*	*	*	*	*
=13	=13	=13	=13	=13	=13	=13	=13	=13
!	!	!	!LO:DY:a	!	!	!LO:DY:a	!	!LO:DY:a
4F\	4f/	4F\	f	4F/	pa-	f	4F/	f
8.B-\L	8.b-\L	8.B-\	.	8.B-\	-dną	.	8.B-\	.
16d\Jk	16dd\Jk	16d\	.	16d\	te	.	16d\	.
4f\	4ff\	4F\	.	4f\	swia-	.	4f\	.
8.d\L	8.dd\L	8.d\	.	8.d\	-ty	.	8.d\	.
16B-\Jk	16b-\Jk	16B-\	.	16B-\	i	.	16B-\	.
!!LO:LB:g=original
=14	=14	=14	=14	=14	=14	=14	=14	=14
*	*^	*	*	*	*	*	*	*
2.F\	2.cc/	4b-\	2F\	.	(4B-\	słoń-	.	2c\	.
.	.	8a\L	.	.	8A\L	.	.	.	.
.	.	8g\J	.	.	8G\J)	.	.	.	.
.	.	[4a\	4F\	.	4A\	-ca	.	4c\	.
!	!	!	!	!	!	!	!	!	!LO:HP:a
4F 4FF/	4cc#X/	4a\]	(4F\	.	(4A\	Je-	.	(4c#X\	<
=15	=15	=15	=15	=15	=15	=15	=15	=15	=15
*^	*	*	*	*	*	*	*	*	*
2F/	1BB-	2dd/	4.b-\	4.BB-/)	.	4.B-\)	.	.	4.d\)	[[
.	.	.	8a\	8BB-/	.	8A\	-mu	.	8d\	.
4E-X/	.	8ff/L	8g\L	4BB-/	.	8G/L	tyl-	.	8f\L	.
.	.	8ee-X/J	8g-X\J	.	.	8G-X/J	.	.	8e-X\J	.
4F/	.	4dd/	4f\	4BB-/	.	4F/	-ko	.	4d\	.
=16	=16	=16	=16	=16	=16	=16	=16	=16	=16	=16
2F/	1BB-	4.cc/	4.e-X\	4.BB-/	.	4.E-X/	gra-	.	4.c\	.
.	.	8dd/	8f\	8BB-/	.	8F/	-nic	.	8d\	.
8G/L	.	4cc/	4e-\	4BB-/	.	4E-/	nie	.	4c\	.
8A/J	.	.	.	.	.	.	.	.	.	.
4B-/	.	4b-/	4d\	4BB-/	.	4D/	ma	.	4B-\	.
=17	=17	=17	=17	=17	=17	=17	=17	=17	=17	=17
!LO:SIC:v:s=4E-	!	!	!	!	!	!	!	!	!	!
8B-L 8E\	4ryy	8g/L	8e-X\L	(8E-X\L	.	(8E-X/L	Je-	.	8G\L	.
!	!	!	!	!	!	!	!	!	!	!LO:HP:a
[8GJ 8D\	.	8b-X/	8f\J	8D\J)	.	8F/J)	.	.	8Bn\J	<
4G/]	4C\	8cc/	8e-\L	8C/	.	8E-/	-go	.	8c\	.
.	.	8ee-X/J	8g\J	8C/	.	8G/	jest	.	8e-X\	.
4d 4B- [4F\	2ryy	4dd/	4b-\	4F\	.	4B-\	wie-	.	4d\	.
4c 4F\]	.	8.cc/L	8.b-\L	8.F\	.	8.B-\	-czność	.	8.c\	.
.	.	16ff/Jk	16a\Jk	16F\	.	16A\	bez	.	16f\	[[
*v	*v	*	*	*	*	*	*	*	*	*
*	*v	*v	*	*	*	*	*	*	*
!!LO:LB:g=original
=18	=18	=18	=18	=18	=18	=18	=18	=18
!	!LO:TX:b:i:t=1o Tempo	!	!	!	!	!	!	!
8B-\L	8b-/L	2B-\	.	2B-\	koń-	.	2B-\	.
8B-\	8b-/	.	.	.	.	.	.	.
8F\	8f/	.	.	.	.	.	.	.
8D\J	8dd/J	.	.	.	.	.	.	.
!	!	!	!	!	!	!	!LO:TX:a:i:t=Tempo 1.o	!
4BB-/	4b-/	4BB-/	.	4B-\	-ca	.	4B-\	.
!	!	!	!	!	!	!	!LO:TX:a:i:t=Tutti.	!
!	!	!	!LO:DY:a	!	!	!LO:DY:a	!	!LO:DY:a
8.F\L	8.ffL 8.f\	8.F\	f	8.f\	Je-	f	8.f\	f
16E\Jk	16eenJk 16en\	16E\	.	16e\	-mu	.	16en\	.
=19	=19	=19	=19	=19	=19	=19	=19	=19
2F\	2ff 2f/	2F\	.	2f\	słoń-	.	2f\	.
4C/	4cc 4c/	4C/	.	4c\	-ce	.	4c\	.
8.FL 8.FF/	8.aL 8.f/	8.F\	.	8.A\	w chło-	.	8.A\	.
16EJk 16EE/	16ccJk 16g/	16E\	.	16G\	-dzie	.	16c\	.
=20	=20	=20	=20	=20	=20	=20	=20	=20
2D 2DD/	2ff 2a 2f\	2D\	.	2A\	swie-	.	2f\	.
2G 2GG/	2dd 2bn 2g\	2G\	.	2Bn\	-ci	.	2d\	.
=21	=21	=21	=21	=21	=21	=21	=21	=21
*	*^	*	*	*	*	*	*	*
*tremolo	*	*	*	*	*	*	*	*	*
8C\L	2ee/	4cc 4g\	4C/	.	4c\	wia-	.	4e\	.
8c\	.	.	.	.	.	.	.	.	.
8C\	.	4g\	8.C/	.	8.G/	-try	.	8.e\	.
8c\J	.	.	.	.	.	.	.	.	.
.	.	.	16C/	.	16G/	wy-	.	16e\	.
8C\L	8gg/L	8b-X\L	4C/	.	8B-X/L	-ro-	.	8g\L	.
8c\	(<8ff/	8a\	.	.	8A/J	.	.	8f\J	.
8C\	8ee/)	8g\	8C/	.	8G/	-ki	.	8e\	.
8c\J	8dd/J	8f\J	8C/	.	8F/	ro-	.	8d\	.
*Xtremolo	*	*	*	*	*	*	*	*	*
*	*v	*v	*	*	*	*	*	*	*
!!LO:PB:g=original
=22	=22	=22	=22	=22	=22	=22	=22	=22
8C\L	8ccL 8e/	(4C/	.	(4E/	-zno-	.	(4c\	.
8G\	8g/	.	.	.	.	.	.	.
8Bn\	8dd/	4BBn/)	.	4G/)	.	.	4dT\)	.
8G\J	8g/J	.	.	.	.	.	.	.
4c\	4ee 4g/	4C/	.	4G/	-szą	.	4e\	.
8.G\L	8.ggL 8.g\	8.G\	.	8.G/	Lu-	.	8.g\	.
16F#X\Jk	16ff#XJk 16f#X\	16F#X\	.	16F#X/	-dy	.	16f#X\	.
=23	=23	=23	=23	=23	=23	=23	=23	=23
2G\	2gg 2g\	2G\	.	2G/	ziem-	.	2g\	.
4Fn\	4ffn 4fn\	4Fn\	.	4Fn/	-skie	.	4fn\	.
8.E\L	8.eeL 8.e\	8.E\	.	8.E/	Je-	.	8.e\	.
16D\Jk	16ddJk 16d\	16D\	.	16D/	-go	.	16d\	.
=24	=24	=24	=24	=24	=24	=24	=24	=24
2E\	2ee 2e\	2E\	.	2E/	dzie-	.	2e\	.
2C\	2cc 2c\	2C/	.	2c\	-ci	.	2c\	.
!!LO:LB:g=original
=25	=25	=25	=25	=25	=25	=25	=25	=25
*	*^	*	*	*	*	*	*	*
2BB-/	2dd 2b-/	2ryy	4BB-/	.	4B-\	cno-	.	4d\	.
.	.	.	8.BB-/	.	8.B-\	-tą	.	8.d\	.
.	.	.	16BB-/	.	16B-\	ku	.	16d\	.
[>4C/	8cc/L	4a\	4C/	.	4A\	nie-	.	8c\L	.
.	8ff/	.	.	.	.	.	.	8f\J	.
4C] 4CC/	8dd/	8b-\L	8C/	.	8B-\	-mu	.	8d\	.
.	8ee/J	8g\J	8C/	.	8G/	się	.	8e\	.
*	*v	*v	*	*	*	*	*	*	*
=26	=26	=26	=26	=26	=26	=26	=26	=26
[1F [>1FF	2.ff 2.a 2.f\	2F\	.	2A\	wzno-	.	2f\	.
.	.	4F\	.	4A\	-szą	.	4f\	.
.	4ee-X/	4r	.	4r	.	.	4r	.
=27	=27	=27	=27	=27	=27	=27	=27	=27
*	*^	*	*	*	*	*	*	*
1F] 1FF]	2dd 2b-/	1f	1r	.	1r	.	.	1r	.
.	2b- 2g/	.	.	.	.	.	.	.	.
=28	=28	=28	=28	=28	=28	=28	=28	=28	=28
2.F 2.FF/	2.cc 2.a/	[2.f\	1r	.	1r	.	.	1r	.
4e-X 4c 4F\	4a/	4f\]	.	.	.	.	.	.	.
!!LO:LB:g=original
=29	=29	=29	=29	=29	=29	=29	=29	=29	=29
*^	*	*	*	*	*	*	*	*	*
2d/	1F	2cc/	1f	1r	.	1r	.	.	1r	.
2B-/	.	2dd 2b-/	.	.	.	.	.	.	.	.
*v	*v	*	*	*	*	*	*	*	*	*
*	*v	*v	*	*	*	*	*	*	*
=30	=30	=30	=30	=30	=30	=30	=30	=30
1c 1F;<	1ff 1a 1f;	1r	.	1r	.	.	1r	.
==	==	==	==	==	==	==	==	==
*-	*-	*-	*-	*-	*-	*-	*-	*-
!!!system-decoration: g1{(g2)}
!!!RDF**kern: > = above
!!!RDF**kern: < = below
!!!ENC: Anastazja Marusiak
!!!END: 2021-08-12
!!!ENC: Kamil Watkowski
!!!END: 2021-09-09
